!!!COM: Mozart, Wolfgang Amadeus
!!!OPR: Symphony in G Minor (with clarinetti)
!!!OTL: Menuetto
!!!OMV: 3
!!!SCT: K 550
!!!SCA: Chronologisch-thematisches Verzeichnis sämtlicher Tonwerke Wolfgang Amade Mozarts (L. von Köchel; 1862, 2/1905, 3/1937, 1947)
!!!YOR: Breitkopf & Härtel Edition
!!!EED: Frances Bennion
!!!ENC: Frances Bennion
!!!CDT: 1756/1/27/-1791/12/5/
!!!OCY: Österreich
!!!YEC: Copyright (c) 1994, 2000 Center for Computer Assisted Research in the Humanities
!!!YEM: Rights to all derivative editions reserved.
!!!YEM: Refer to licensing agreement for further details.
!!!YEN: United States of America
**kern	**dynam	**kern	**dynam	**kern	**dynam	**kern	**dynam	**kern	**dynam	**kern	**dynam	**kern	**dynam	**kern	**dynam	**kern	**dynam
*I:Flauto	*I:Flauto	*I:Oboe 1, 2	*I:Oboe 1, 2	*I:Clarinetto 1, 2 in Bb	*I:Clarinetto 1, 2 in Bb	*I:Fagotto 1, 2	*I:Fagotto 1, 2	*I:Corno 1, 2 in G	*I:Corno 1, 2 in G	*I:Violino I	*I:Violino I	*I:Violino II	*I:Violino II	*I:Viola	*I:Viola	*I:Violoncello e Basso	*I:Violoncello e Basso
*>[A,A,B,B,C,A,A,B,B,C,D,D]	*	*>[A,A,B,B,C,A,A,B,B,C,D,D]	*	*>[A,A,B,B,C,A,A,B,B,C,D,D]	*	*>[A,A,B,B,C,A,A,B,B,C,D,D]	*	*>[A,A,B,B,C,A,A,B,B,C,D,D]	*	*>[A,A,B,B,C,A,A,B,B,C,D,D]	*	*>[A,A,B,B,C,A,A,B,B,C,D,D]	*	*>[A,A,B,B,C,A,A,B,B,C,D,D]	*	*>[A,A,B,B,C,A,A,B,B,C,D,D]	*
*>A	*	*>A	*	*>A	*	*>A	*	*>A	*	*>A	*	*>A	*	*>A	*	*>A	*
*clefG2	*	*clefG2	*	*clefG2	*	*clefF4	*	*clefG2	*	*clefG2	*	*clefG2	*	*clefC3	*	*clefF4	*
*k[b-e-]	*	*k[b-e-]	*	*k[]	*	*k[b-e-]	*	*k[]	*	*k[b-e-]	*	*k[b-e-]	*	*k[b-e-]	*	*k[b-e-]	*
*g:	*	*g:	*	*g:	*	*g:	*	*g:	*	*g:	*	*g:	*	*g:	*	*g:	*
*M3/4	*	*M3/4	*	*M3/4	*	*M3/4	*	*M3/4	*	*M3/4	*	*M3/4	*	*M3/4	*	*M3/4	*
! Allegretto	!	!	!	!	!	!	!	!	!	!	!	!	!	!	!	!	!
*tb8	*	*tb8	*	*tb8	*	*tb8	*	*tb8	*	*tb8	*	*tb8	*	*tb8	*	*tb8	*
=0-	=0-	=0-	=0-	=0-	=0-	=0-	=0-	=0-	=0-	=0-	=0-	=0-	=0-	=0-	=0-	=0-	=0-
*	*	*^	*	*	*	*	*	*	*	*	*	*	*	*	*	*	*
4dd\xx	f	2ryy	4r	.	4r	.	4r	.	4r	.	4d/xx	f	4d/xx	f	4r	.	4r	.
2ryy	.	.	2ryy	.	2ryy	.	2ryy	.	2ryy	.	2ryy	.	2ryy	.	2ryy	.	2ryy	.
.	.	4r	.	.	.	.	.	.	.	.	.	.	.	.	.	.	.	.
=1	=1	=1	=1	=1	=1	=1	=1	=1	=1	=1	=1	=1	=1	=1	=1	=1	=1	=1
*	*	*v	*v	*	*	*	*	*	*^	*	*	*	*	*	*	*	*	*
!	!	! a 2.	!	! a 2.	!	! a 2.	!	!	!	!	!	!	!	!	!	!	!	!
!	!	!	!	!	!	!	!	!	!	!	!	!	!	!	!	!	!	!
2gg\	.	2g/xx	f	2a/xx	f	4G'\xx	f	2.cc/xx	2.c/	f	2g/	.	2g/	.	4B-'/xx	f	4G'\xx	f
.	.	.	.	.	.	4B-'\	.	.	.	.	.	.	.	.	4G'/	.	4B-'\	.
[4bb-\	.	4b-\	.	4cc\	.	4G'\	.	.	.	.	[4b-\	.	[4b-\	.	4D'/	.	4G'\	.
=2	=2	=2	=2	=2	=2	=2	=2	=2	=2	=2	=2	=2	=2	=2	=2	=2	=2	=2
4bb-\]	.	2dd\	.	2ee\	.	2D\	.	2g/	2G/	.	4b-\]	.	4b-\]	.	2d\	.	2D\	.
8aa\L	.	.	.	.	.	.	.	.	.	.	8a/L	.	8a/L	.	.	.	.	.
8gg\	.	.	.	.	.	.	.	.	.	.	8g/	.	8g/	.	.	.	.	.
8ff#\	.	4f#/	.	4g#/	.	4C/	.	4g/	4G/	.	8f#/	.	8f#/	.	4d\	.	4C/	.
8aa\J	.	.	.	.	.	.	.	.	.	.	8a/J	.	8a/J	.	.	.	.	.
=3	=3	=3	=3	=3	=3	=3	=3	=3	=3	=3	=3	=3	=3	=3	=3	=3	=3	=3
4gg\	.	4g/	.	4a/	.	4BB-/	.	4g/	4G/	.	4g/	.	4g/	.	4d\	.	4BB-/	.
4dd\	.	4r	.	4r	.	4r	.	4r	4r	.	4d/	.	4d/	.	4r	.	4r	.
4gg\	.	4r	.	4r	.	4r	.	4r	4r	.	4g/	.	4g/	.	4r	.	4r	.
=4	=4	=4	=4	=4	=4	=4	=4	=4	=4	=4	=4	=4	=4	=4	=4	=4	=4	=4
2bb-\	.	2g/	.	2a/	.	4G'\	.	2.cc/	2.c/	.	2b-\	.	2b-\	.	4d'\	.	4G'\	.
.	.	.	.	.	.	4B-'\	.	.	.	.	.	.	.	.	4G'/	.	4B-'\	.
[4ddd\	.	4b-\	.	4cc\	.	4G'\	.	.	.	.	[4dd\	.	[4dd\	.	4B-'/	.	4G'\	.
=5	=5	=5	=5	=5	=5	=5	=5	=5	=5	=5	=5	=5	=5	=5	=5	=5	=5	=5
4ddd\]	.	2dd\	.	2ee\	.	2F#\	.	2g/	2G/	.	4dd\]	.	4dd\]	.	2F#/	.	2D\	.
8ccc\L	.	.	.	.	.	.	.	.	.	.	8cc\L	.	8cc\L	.	.	.	.	.
8bb-\	.	.	.	.	.	.	.	.	.	.	8b-\	.	8b-\	.	.	.	.	.
8aa\	.	4a/	.	4b\	.	4D\	.	4g/	4G/	.	8a\	.	8a\	.	4d\	.	4F#\	.
8ccc\J	.	.	.	.	.	.	.	.	.	.	8cc\J	.	8cc\J	.	.	.	.	.
=6	=6	=6	=6	=6	=6	=6	=6	=6	=6	=6	=6	=6	=6	=6	=6	=6	=6	=6
4bb-\	.	4b-\	.	4cc\	.	4G\	.	4g/	4G/	.	4b-\	.	4b-\	.	4D/	.	4G\	.
4gg\	.	4r	.	4r	.	4r	.	4r	4r	.	4g/	.	4g/	.	4r	.	4r	.
4r	.	4r	.	4r	.	4r	.	4r	4r	.	4dd\	.	4d/	.	4r	.	4r	.
=7	=7	=7	=7	=7	=7	=7	=7	=7	=7	=7	=7	=7	=7	=7	=7	=7	=7	=7
*	*	*^	*	*^	*	*^	*	*	*	*	*	*	*	*	*	*	*	*
2.r	.	2gg/	2g\	.	2aa/	2a\	.	4G'/	4E-'\	.	4cc/	4c/	.	2gg\	.	2g/	.	4G'/	.	4E-'\	.
.	.	.	.	.	.	.	.	4g'/	4e-'\	.	4cc/	4c/	.	.	.	.	.	4g'\	.	4e-'\	.
.	.	[4bb-/	4b-\	.	[4ccc/	4cc\	.	4fn'/	4d'\	.	4cc/	4c/	.	[4bb-\	.	[4b-\	.	4fn'\	.	4d'\	.
=8	=8	=8	=8	=8	=8	=8	=8	=8	=8	=8	=8	=8	=8	=8	=8	=8	=8	=8	=8	=8	=8
4r	.	4bb-/]	2.een\	.	4ccc/]	2.ff#\	.	2en/	2c#\	.	4cc/	4c/	.	4bb-\]	.	4b-\]	.	2en\	.	2.c#\	.
4r	.	4aa/	.	.	4bb/	.	.	.	.	.	4r	4ryy	.	8aa\L	.	8a/L	.	.	.	.	.
.	.	.	.	.	.	.	.	.	.	.	.	.	.	8ffn\	.	8fn/	.	.	.	.	.
!	!	!	!	!	!	!	!	! a 2.	!	!	!	!	!	!	!	!	!	!	!	!	!
4aa\	.	4een/	.	.	4ff#/	.	.	[4A\	4ryy	.	4dd/	4dd\	.	8een\	.	8en/	.	[4A/	.	.	.
.	.	.	.	.	.	.	.	.	.	.	.	.	.	8gg\J	.	8g/J	.	.	.	.	.
=9	=9	=9	=9	=9	=9	=9	=9	=9	=9	=9	=9	=9	=9	=9	=9	=9	=9	=9	=9	=9	=9
*	*	*	*	*	*	*	*	*v	*v	*	*	*	*	*	*	*	*	*	*	*	*
4fffn\	.	4ff/	4ff\	.	4gg/	4gg\	.	4A\]	.	4dd\	4g\	.	4ff\	.	4f/	.	4A/]	.	4d'\	.
8eeen\L	.	8een/L	8een\L	.	8ff#/L	8ff#\L	.	4B-'\	.	4r	4ryy	.	8een\L	.	8en/L	.	4B-'/	.	4G'\	.
8ddd\	.	8dd/	8dd\	.	8ee/	8ee\	.	.	.	.	.	.	8dd\	.	8d/	.	.	.	.	.
8ccc#\	.	8cc#/	8cc#\	.	8dd#/	8dd#\	.	4G'\	.	4dd/	4dd\	.	8cc#\	.	8c#/	.	4G'/	.	4A'\	.
8eee\J	.	8ee/J	8ee\J	.	8ff#/J	8ff#\J	.	.	.	.	.	.	8ee\J	.	8e/J	.	.	.	.	.
=10	=10	=10	=10	=10	=10	=10	=10	=10	=10	=10	=10	=10	=10	=10	=10	=10	=10	=10	=10	=10
4ddd\	.	4dd/	4dd\	.	4ee/	4ee\	.	4F'\	.	4g/	4g\	.	4dd\	.	4d/	.	4F'/	.	4B-'\	.
8cccn\L	.	8ccn/L	8ccn\L	.	8ddn/L	8ddn\L	.	4G'\	.	4c/	4c\	.	8ccn\L	.	8cn/L	.	4G'/	.	4En'\	.
8bb-\	.	8b-/	8b-\	.	8cc/	8cc\	.	.	.	.	.	.	8b-\	.	8B-/	.	.	.	.	.
8aa\	.	8a/	8a\	.	8b/	8b\	.	4D'\	.	4g/	4G/	.	8a\	.	8A/	.	4D'/	.	4F#'\	.
8ccc\J	.	8cc/J	8cc\J	.	8dd/J	8dd\J	.	.	.	.	.	.	8cc\J	.	8c/J	.	.	.	.	.
=11	=11	=11	=11	=11	=11	=11	=11	=11	=11	=11	=11	=11	=11	=11	=11	=11	=11	=11	=11	=11
4bb-'\	.	4b-'/	4b-\	.	4cc'/	4cc\	.	4G'\	.	4g/	4c/	.	4b-'\	.	4B-'/	.	4d'\	.	4G'\	.
4een'\	.	4gg'/	4r	.	4aa'/	4r	.	4C#'/	.	4r	4r	.	4bb-'\	.	4b-'/	.	4en'\	.	4C#'/	.
4ff'\	.	4ff'/	[4dd\	.	4gg'/	[4ee\	.	4D'\	.	4r	4r	.	4aa'\	.	4a'/	.	4f'\	.	4D'\	.
=12	=12	=12	=12	=12	=12	=12	=12	=12	=12	=12	=12	=12	=12	=12	=12	=12	=12	=12	=12	=12
4bbn'\	.	2een/	(4dd\]	.	2ff#/	(4ee\]	.	4En'\	.	4r	4ryy	.	4gg#'\	.	4g#'/	.	4Bn'/	.	4En'\	.
4ccc#'\	.	.	4cc#\)	.	.	4dd#\)	.	4AA'/	.	4dd/	4dd\	.	4ggn'\	.	4gn'/	.	4c#'\	.	4AA'/	.
4ddd'\	.	4dd/	4dd\	.	4ee/	4ee\	.	4BB-'/	.	4g/	4g\	.	4ff'\	.	4f'/	.	4d'\	.	4BB-'/	.
=13	=13	=13	=13	=13	=13	=13	=13	=13	=13	=13	=13	=13	=13	=13	=13	=13	=13	=13	=13	=13
(4eeen\	.	(2gg/	(2een\	.	(2aa/	(2ff#\	.	4G\	.	4cc/	4cc\	.	(4een\	.	(4en/	.	2B-/	.	4G\	.
4ggg\)	.	.	.	.	.	.	.	4En\	.	4r	4ryy	.	4gg\)	.	4g/)	.	.	.	4En\	.
4ccc#\	.	4een/)	4cc#\)	.	4ff#/)	4dd#\)	.	4A\	.	4dd/	4dd\	.	4cc#\	.	4c#/	.	4G/	.	4A\	.
=14	=14	=14	=14	=14	=14	=14	=14	=14	=14	=14	=14	=14	=14	=14	=14	=14	=14	=14	=14	=14
4ddd\	.	4dd/	4dd\	.	4ee/	4ee\	.	4D\	.	4dd\	4g\	.	4dd\	.	4d/	.	4F/	.	4D\	.
4r	.	4r	4ryy	.	4r	4ryy	.	4r	.	4r	4r	.	4r	.	4r	.	4r	.	4r	.
=:!!:	=:!!:	=:!!:	=:!!:	=:!!:	=:!!:	=:!!:	=:!!:	=:!!:	=:!!:	=:!!:	=:!!:	=:!!:	=:!!:	=:!!:	=:!!:	=:!!:	=:!!:	=:!!:	=:!!:	=:!!:
*>B	*	*	*	*	*	*	*	*>B	*	*>B	*	*	*>B	*	*>B	*	*>B	*	*>B	*
*	*	*v	*v	*	*	*	*	*	*	*	*	*	*	*	*	*	*	*	*	*
*	*	*>B	*	*	*	*	*	*	*	*	*	*	*	*	*	*	*	*	*
!	!	! a 2.	!	!	!	!	!	!	!	!	!	!	!	!	!	!	!	!	!
!	!	!	!	!	!	!	!	!	!	!	!	!	!	!	!	!	!	!	!
*	*	*	*	*v	*v	*	*	*	*	*	*	*	*	*	*	*	*	*	*
*	*	*	*	*>B	*	*	*	*	*	*	*	*	*	*	*	*	*	*
!	!	!	!	! a 2.	!	!	!	!	!	!	!	!	!	!	!	!	!	!
!	!	!	!	!	!	!	!	!	!	!	!	!	!	!	!	!	!	!
4ff\	.	4f/	.	4g/	.	4r	.	4r	4r	.	4r	.	4r	.	4f\	.	4F\	.
2ryy	.	2ryy	.	2ryy	.	2ryy	.	2ryy	2ryy	.	2ryy	.	2ryy	.	2ryy	.	2ryy	.
=15	=15	=15	=15	=15	=15	=15	=15	=15	=15	=15	=15	=15	=15	=15	=15	=15	=15	=15
!	!	!	!	!	!	! a 2.	!	!	!	!	!	!	!	!	!	!	!	!
2bb-\	.	2b-\	.	2cc\	.	4F\	.	2.r	2.r	.	4ff\	.	4f/	.	2b-\	.	2B-\	.
.	.	.	.	.	.	4F\	.	.	.	.	4ff\	.	4f/	.	.	.	.	.
[4ddd\	.	[4dd\	.	[4ee\	.	4F\	.	.	.	.	4ff\	.	4f/	.	[4dd\	.	[4d\	.
=16	=16	=16	=16	=16	=16	=16	=16	=16	=16	=16	=16	=16	=16	=16	=16	=16	=16	=16
4ddd\]	.	4dd\]	.	4ee\]	.	2.e-\	.	2.r	2.r	.	2.eee-\	.	2.ee-\	.	4dd\]	.	4d\]	.
8ccc\L	.	8cc\L	.	8dd\L	.	.	.	.	.	.	.	.	.	.	8cc\L	.	8c\L	.
8bb-\	.	8b-\	.	8cc\	.	.	.	.	.	.	.	.	.	.	8b-\	.	8B-\	.
8aa\	.	8a\	.	8b\	.	.	.	.	.	.	.	.	.	.	8a\	.	8A\	.
8ccc\J	.	8cc\J	.	8dd\J	.	.	.	.	.	.	.	.	.	.	8cc\J	.	8c\J	.
=17	=17	=17	=17	=17	=17	=17	=17	=17	=17	=17	=17	=17	=17	=17	=17	=17	=17	=17
*	*	*^	*	*^	*	*	*	*	*	*	*	*	*	*	*	*	*	*
4bb-\	.	4b-\	2ryy	.	4cc\	2ryy	.	8d\L	.	2.r	2.r	.	8ddd\L	.	8dd/L	.	4b-\	.	4B-\	.
.	.	.	.	.	.	.	.	8B-\	.	.	.	.	8bb-\	.	8b-/	.	.	.	.	.
4r	.	4r	.	.	4r	.	.	8F\	.	.	.	.	8ff\	.	8f/	.	4r	.	4r	.
.	.	.	.	.	.	.	.	8D\J	.	.	.	.	8dd\J	.	8d/J	.	.	.	.	.
4dd\	.	4dd/	4d/	.	4ee/	4e/	.	4BB-/	.	.	.	.	4b-\	.	4B-/	.	4d\	.	4D\	.
=18	=18	=18	=18	=18	=18	=18	=18	=18	=18	=18	=18	=18	=18	=18	=18	=18	=18	=18	=18	=18
2gg\	.	2gg\	2g\	.	2aa\	2a\	.	4D\	.	4g/	4G/	.	4dd\	.	4d/	.	2g\	.	2G\	.
.	.	.	.	.	.	.	.	4D\	.	4g/	4G/	.	4dd\	.	4d/	.	.	.	.	.
[4bb-\	.	[4bb-\	[4b-\	.	[4ccc\	[4cc\	.	4D\	.	4g/	4G/	.	4dd\	.	4d/	.	[4b-\	.	[4B-\	.
=19	=19	=19	=19	=19	=19	=19	=19	=19	=19	=19	=19	=19	=19	=19	=19	=19	=19	=19	=19	=19
4bb-\]	.	4bb-\]	4b-\]	.	4ccc\]	4cc\]	.	2.c\	.	4g/	4G/	.	2.ccc\	.	2.cc\	.	4b-\]	.	4B-\]	.
8aa\L	.	8aa\L	8a\L	.	8bb\L	8b\L	.	.	.	4g/	4G/	.	.	.	.	.	8a\L	.	8A\L	.
8gg\	.	8gg\	8g\	.	8aa\	8a\	.	.	.	.	.	.	.	.	.	.	8g\	.	8G\	.
8ff#\	.	8ff#\	8f#\	.	8gg#\	8g#\	.	.	.	4g/	4G/	.	.	.	.	.	8f#\	.	8F#\	.
8aa\J	.	8aa\J	8a\J	.	8bb\J	8b\J	.	.	.	.	.	.	.	.	.	.	8a\J	.	8A\J	.
=20	=20	=20	=20	=20	=20	=20	=20	=20	=20	=20	=20	=20	=20	=20	=20	=20	=20	=20	=20	=20
4gg\	.	4gg\	4g\	.	4aa\	4a\	.	8B-\L	.	4g/	4G/	.	8bb-\L	.	8b-/L	.	4g\	.	4G\	.
.	.	.	.	.	.	.	.	8G\	.	.	.	.	8gg\	.	8g/	.	.	.	.	.
4r	.	2ryy	4r	.	2ryy	4r	.	8D\	.	4r	4r	.	8dd\	.	8d/	.	4r	.	4r	.
.	.	.	.	.	.	.	.	8BB-\J	.	.	.	.	8b-\J	.	8B-/J	.	.	.	.	.
!	!	!	! a 2.	!	!	! a 2.	!	!	!	!	!	!	!	!	!	!	!	!	!	!
4b-\	.	.	4b-\	.	.	4cc\	.	4GG/	.	4r	4r	.	4g/	.	4G/	.	4B-/	.	4BB-/	.
=21	=21	=21	=21	=21	=21	=21	=21	=21	=21	=21	=21	=21	=21	=21	=21	=21	=21	=21	=21	=21
*	*	*v	*v	*	*	*	*	*	*	*	*	*	*	*	*	*	*	*	*	*
*	*	*	*	*v	*v	*	*	*	*	*	*	*	*	*	*	*	*	*	*
2ee-\	.	2ee-\	.	2ff\	.	4BB-/	.	2.r	2.r	.	4b-\	.	4B-/	.	2e-\	.	2E-\	.
.	.	.	.	.	.	4BB-/	.	.	.	.	4b-\	.	4B-/	.	.	.	.	.
[4gg\	.	[4gg\	.	[4aa\	.	4BB-/	.	.	.	.	4b-\	.	4B-/	.	[4g\	.	[4G\	.
=22	=22	=22	=22	=22	=22	=22	=22	=22	=22	=22	=22	=22	=22	=22	=22	=22	=22	=22
4gg\]	.	4gg\]	.	4aa\]	.	2.A-\	.	2.r	2.r	.	2.aa-\	.	2.a-/	.	4g\]	.	4G\]	.
8ffn\L	.	8ffn\L	.	8ggn\L	.	.	.	.	.	.	.	.	.	.	8fn\L	.	8Fn\L	.
8ee-\	.	8ee-\	.	8ff\	.	.	.	.	.	.	.	.	.	.	8e-\	.	8E-\	.
8dd\	.	8dd\	.	8ee\	.	.	.	.	.	.	.	.	.	.	8d\	.	8D\	.
8ff\J	.	8ff\J	.	8gg\J	.	.	.	.	.	.	.	.	.	.	8f\J	.	8F\J	.
=23	=23	=23	=23	=23	=23	=23	=23	=23	=23	=23	=23	=23	=23	=23	=23	=23	=23	=23
4ee-\	.	4ee-\	.	4ff\	.	4G\	.	2.r	2.r	.	4gg\	.	4g/	.	4e-\	.	4E-\	.
2bn\	.	2bn\	.	2cc#\	.	8F\L	.	.	.	.	8ff\L	.	8f/L	.	2Bn/	.	2BBn/	.
.	.	.	.	.	.	8E-\	.	.	.	.	8ee-\	.	8e-/	.	.	.	.	.
.	.	.	.	.	.	8D\	.	.	.	.	8dd\	.	8d/	.	.	.	.	.
.	.	.	.	.	.	8F\J	.	.	.	.	8ff\J	.	8f/J	.	.	.	.	.
=24	=24	=24	=24	=24	=24	=24	=24	=24	=24	=24	=24	=24	=24	=24	=24	=24	=24	=24
4cc\	.	4cc\	.	4dd\	.	4E-\	.	2.r	2.r	.	4ee-\	.	4e-/	.	4c\	.	4C/	.
2dd\	.	2dd\	.	2ee\	.	8D/L	.	.	.	.	8dd\L	.	8d/L	.	2d\	.	2D\	.
.	.	.	.	.	.	8C/	.	.	.	.	8cc\	.	8c/	.	.	.	.	.
.	.	.	.	.	.	8BBn/	.	.	.	.	8bn\	.	8Bn/	.	.	.	.	.
.	.	.	.	.	.	8D/J	.	.	.	.	8dd\J	.	8d/J	.	.	.	.	.
=25	=25	=25	=25	=25	=25	=25	=25	=25	=25	=25	=25	=25	=25	=25	=25	=25	=25	=25
*	*	*^	*	*^	*	*	*	*	*	*	*	*	*	*	*	*	*	*
4ee-\	.	4ee-\	4ryy	.	4ff\	4ryy	.	4C/	.	4r	4r	.	4cc\	.	4c/	.	4e-\	.	4E-\	.
2ccc#\	.	2ccc#\	2cc#\	.	2ddd#\	2dd#\	.	8BB-/L	.	2cc/	2c/	.	8b-/L	.	8B-/L	.	2cc#\	.	2c#\	.
.	.	.	.	.	.	.	.	8AA/	.	.	.	.	8a/	.	8A/	.	.	.	.	.
.	.	.	.	.	.	.	.	8BB-/	.	.	.	.	8b-/	.	8B-/	.	.	.	.	.
.	.	.	.	.	.	.	.	8GG/J	.	.	.	.	8g/J	.	8G/J	.	.	.	.	.
=26	=26	=26	=26	=26	=26	=26	=26	=26	=26	=26	=26	=26	=26	=26	=26	=26	=26	=26	=26	=26
4ddd\	.	4ddd\	4dd\	.	4eee\	4ee\	.	4FF#/	.	4g/	4G/	.	4f#/	.	4d/	.	4dd\	.	4d\	.
8bb-\L	.	8bb-\L	8b-\L	.	8ccc\L	8cc\L	.	2c#\	.	2cc/	2c/	.	2ccc#\	.	2cc#\	.	8b-\L	.	8B-\L	.
8aa\	.	8aa\	8a\	.	8bb\	8b\	.	.	.	.	.	.	.	.	.	.	8a\	.	8A\	.
8bb-\	.	8bb-\	8b-\	.	8ccc\	8cc\	.	.	.	.	.	.	.	.	.	.	8b-\	.	8B-\	.
8gg\J	.	8gg\J	8g\J	.	8aa\J	8a\J	.	.	.	.	.	.	.	.	.	.	8g\J	.	8G\J	.
=27	=27	=27	=27	=27	=27	=27	=27	=27	=27	=27	=27	=27	=27	=27	=27	=27	=27	=27	=27	=27
*	*	*	*	*	*	*	*	*^	*	*	*	*	*	*	*	*	*	*	*	*
4ff#\	.	4ff#/	4f#\	.	4gg#/	4g#\	.	4d/	4d\	.	4g/	4G/	.	4ddd\	.	4dd\	.	4f#\	.	4F#\	.
8dd\L	.	4r	8dd\L	.	4r	8ee\L	.	4r	4r	.	2g/	2G/	.	4r	.	4r	.	8d\L	.	8D/L	.
8cc#\	.	.	8cc#\	.	.	8dd#\	.	.	.	.	.	.	.	.	.	.	.	8c#\	.	8C#/	.
8dd\	.	4dd/	8dd\	.	4ee/	8ee\	.	4D/	4r	.	.	.	.	4d/	.	4r	.	8d\	.	8D/	.
8ccn\J	.	.	8ccn\J	.	.	8ddn\J	.	.	.	.	.	.	.	.	.	.	.	8cn\J	.	8Cn/J	.
=28	=28	=28	=28	=28	=28	=28	=28	=28	=28	=28	=28	=28	=28	=28	=28	=28	=28	=28	=28	=28	=28
4b-\	.	2gg/	4b-\	.	2aa/	4cc\	.	2G/	4r	.	4c/	4c\	.	2g/	.	4r	.	4B-/	.	4BB-/	.
4r	.	.	4r	.	.	4r	.	.	4r	.	4r	4ryy	.	.	.	4r	.	4d\	.	4B-\	.
4gg\	.	[4bb-/	4g\	.	[4ccc/	4a\	.	[4B-/	4G\	.	4r	4ryy	.	[4b-\	.	4g/	.	4B-/	.	4G\	.
=29	=29	=29	=29	=29	=29	=29	=29	=29	=29	=29	=29	=29	=29	=29	=29	=29	=29	=29	=29	=29	=29
2ccc\	.	4bb-/]	2cc\	.	4ccc/]	2dd\	.	4B-/]	2c\	.	2.r	2.r	.	4b-\]	.	2ccn\	.	4G/	.	4E-\	.
.	.	8aa/L	.	.	8bb/L	.	.	8A/L	.	.	.	.	.	8a/L	.	.	.	4e-\	.	4C/	.
.	.	8bb-/	.	.	8ccc/	.	.	8B-/	.	.	.	.	.	8b-/	.	.	.	.	.	.	.
[4eee-\	.	8gg/	[4ee-\	.	8aa/	[4ff\	.	8G/	[4e-\	.	.	.	.	8g/	.	[4ee-\	.	[4A/	.	4c\	.
.	.	8aa/J	.	.	8bb/J	.	.	8A/J	.	.	.	.	.	8a/J	.	.	.	.	.	.	.
=30	=30	=30	=30	=30	=30	=30	=30	=30	=30	=30	=30	=30	=30	=30	=30	=30	=30	=30	=30	=30	=30
4eee-\]	.	2ff#/	4ee-\]	.	2gg#/	4ff\]	.	2F#/	4e-\]	.	2.g/	2.G/	.	2f#/	.	4ee-\]	.	4A/]	.	4d\	.
8ddd\L	.	.	8dd\L	.	.	8ee\L	.	.	8d\L	.	.	.	.	.	.	8dd\L	.	4F#/	.	4A\	.
8eee-\	.	.	8ee-\	.	.	8ff\	.	.	8e-\	.	.	.	.	.	.	8ee-\	.	.	.	.	.
8ccc\	.	[4aa/	8cc\	.	[4bb/	8dd\	.	[4A/	8c\	.	.	.	.	[4aa\	.	8cc\	.	[4d\	.	4F#\	.
8ddd\J	.	.	8dd\J	.	.	8ee\J	.	.	8d\J	.	.	.	.	.	.	8dd\J	.	.	.	.	.
=31	=31	=31	=31	=31	=31	=31	=31	=31	=31	=31	=31	=31	=31	=31	=31	=31	=31	=31	=31	=31	=31
2bb-\	.	4aa/]	2b-\	.	4bb/]	2cc\	.	4A/]	2B-\	.	2.C/	2.CC/	.	4aa\]	.	2b-\	.	4d\]	.	4G\	.
.	.	8gg/L	.	.	8aa/L	.	.	8G/L	.	.	.	.	.	8gg\L	.	.	.	4B-/	.	4D\	.
.	.	8aa-/	.	.	8bb-/	.	.	8A-/	.	.	.	.	.	8aa-\	.	.	.	.	.	.	.
[4ddd\	.	8ffn/	[4dd\	.	8ggn/	[4ee\	.	8Fn/	[4d\	.	.	.	.	8ffn\	.	[4ddd\	.	[4g\	.	4BBn/	.
.	.	8gg/J	.	.	8aa/J	.	.	8G/J	.	.	.	.	.	8gg\J	.	.	.	.	.	.	.
=32	=32	=32	=32	=32	=32	=32	=32	=32	=32	=32	=32	=32	=32	=32	=32	=32	=32	=32	=32	=32	=32
4ddd\]	.	2ee-/	4dd\]	.	2ff/	4ee\]	.	2E-/	4d\]	.	2.r	2.r	.	2ee-\	.	4ddd\]	.	4g\]	.	4C/	.
8ccc\L	.	.	8cc\L	.	.	8dd\L	.	.	8c\L	.	.	.	.	.	.	8ccc\L	.	4f#\	.	4AA-/	.
8ddd\	.	.	8dd\	.	.	8ee\	.	.	8d\	.	.	.	.	.	.	8ddd\	.	.	.	.	.
8bb-\	.	[4ee-/	8b-\	.	[4ff/	8cc\	.	[4e-/	8B-\	.	.	.	.	[4eee-\	.	8bb-\	.	4g\	.	4GG/	.
8ccc\J	.	.	8cc\J	.	.	8dd\J	.	.	8c\J	.	.	.	.	.	.	8ccc\J	.	.	.	.	.
=33	=33	=33	=33	=33	=33	=33	=33	=33	=33	=33	=33	=33	=33	=33	=33	=33	=33	=33	=33	=33	=33
2aa\	.	4ee-/]	2a\	.	4ff/]	2b\	.	4e-/]	2A\	.	4r	4r	.	4eee-\]	.	2aa\	.	4a\	.	4FF#/	.
.	.	4dd/	.	.	4ee/	.	.	8d/L	.	.	4r	4r	.	8ddd\L	.	.	.	4A/	.	4F#\	.
.	.	.	.	.	.	.	.	8e-/	.	.	.	.	.	8eee-\	.	.	.	.	.	.	.
4fff#\	.	4ccc/	4aa\	.	4ddd/	4bb\	.	8cn/	4F#\	.	4dd\	4g\	.	8ccc\	.	4ff#\	.	4a\	.	4D\	.
.	.	.	.	.	.	.	.	8dn/J	.	.	.	.	.	8ddd\J	.	.	.	.	.	.	.
=34	=34	=34	=34	=34	=34	=34	=34	=34	=34	=34	=34	=34	=34	=34	=34	=34	=34	=34	=34	=34	=34
4ggg'\	.	4bb-'/	4gg\	.	4ccc'/	4aa\	.	4B-'/	4G\	.	4cc/	4c/	.	4bb-'\	.	4gg'\	.	4g'\	.	4G'\	.
4ccc'\	.	4aa'/	4ff#\	.	4bb'/	4gg#\	.	4f#'/	4c\	.	4dd\	4g\	.	4ff#'\	.	4cc'\	.	4a'\	.	4d'\	.
4bb-'\	.	4gg'/	4gg\	.	4aa'/	4aa\	.	4g'/	4B-\	.	4cc/	4c/	.	4gg'\	.	4b-'\	.	4g'\	.	4e-'\	.
=35	=35	=35	=35	=35	=35	=35	=35	=35	=35	=35	=35	=35	=35	=35	=35	=35	=35	=35	=35	=35	=35
4ccc'\	.	4aa'/	2ee-\	.	4bb'/	2ff\	.	4e-'/	4c\	.	4ff\	4dd\	.	4a'/	.	4e-'/	.	4c'\	.	4c'\	.
4eee-'\	.	4ccc'/	.	.	4ddd'/	.	.	4c'/	4A\	.	4r	4r	.	4aa'\	.	4cc'\	.	4e-'\	.	4A'\	.
4aa'\	.	4ff#'/	8dd\L	.	4gg#'/	8ee\L	.	4An'/	4F#\	.	4dd\	4g\	.	4ff#'\	.	4a'/	.	4d'\	.	4d'\	.
.	.	.	8cc\J	.	.	8dd\J	.	.	.	.	.	.	.	.	.	.	.	.	.	.	.
=36	=36	=36	=36	=36	=36	=36	=36	=36	=36	=36	=36	=36	=36	=36	=36	=36	=36	=36	=36	=36	=36
4gg\	.	4gg/	4b-\	.	4aa/	4cc\	.	4G/	4G\	.	4cc/	4c/	.	4gg\	.	4b-\	.	4d\	.	4G\	.
*	*	*	*	*	*	*	*	*clefC4	*	*	*	*	*	*	*	*	*	*	*	*	*
4r	.	4r	4ryy	.	4r	4ryy	.	(4g/	4r	p	4r	4r	.	4r	.	4r	.	4r	.	4r	.
4dd\	p	4r	4ryy	.	(4b/	4r	p	4f#/	4r	.	4r	4r	.	4r	.	4r	.	4r	.	4r	.
=37	=37	=37	=37	=37	=37	=37	=37	=37	=37	=37	=37	=37	=37	=37	=37	=37	=37	=37	=37	=37	=37
2gg\	.	2.r	2.r	.	4cc#/	4r	.	4fn/	2.r	.	2.r	2.r	.	2.r	.	2.r	.	2.r	.	2.r	.
.	.	.	.	.	4dd/)	4r	.	4en/	.	.	.	.	.	.	.	.	.	.	.	.	.
[4bb-\	.	.	.	.	[4aa/	(4dd#\	p	4e-/	.	.	.	.	.	.	.	.	.	.	.	.	.
=38	=38	=38	=38	=38	=38	=38	=38	=38	=38	=38	=38	=38	=38	=38	=38	=38	=38	=38	=38	=38	=38
4bb-\]	.	2.r	2.r	.	(4aa/]	4ee\)	.	4d/)	2.r	.	2.r	2.r	.	2.r	.	2.r	.	2.r	.	2.r	.
8aa\L	.	.	.	.	4ee/)	8ddn\L	.	4d'/	.	.	.	.	.	.	.	.	.	.	.	.	.
8gg\	.	.	.	.	.	8cc\	.	.	.	.	.	.	.	.	.	.	.	.	.	.	.
8ff#\	.	.	.	.	4r	8b\	.	4d'/	.	.	.	.	.	.	.	.	.	.	.	.	.
8aa\J	.	.	.	.	.	8dd\J	.	.	.	.	.	.	.	.	.	.	.	.	.	.	.
=39	=39	=39	=39	=39	=39	=39	=39	=39	=39	=39	=39	=39	=39	=39	=39	=39	=39	=39	=39	=39	=39
4gg\	.	2.r	2.r	.	(2.ff#\	[2.cc\	.	4c#/	2.r	.	2.r	2.r	.	2.r	.	2.r	.	2.r	.	2.r	.
4r	.	.	.	.	.	.	.	4c#/	.	.	.	.	.	.	.	.	.	.	.	.	.
4gg\	.	.	.	.	.	.	.	4c#/	.	.	.	.	.	.	.	.	.	.	.	.	.
=40	=40	=40	=40	=40	=40	=40	=40	=40	=40	=40	=40	=40	=40	=40	=40	=40	=40	=40	=40	=40	=40
2bb-\	.	2.r	2.r	.	4aa\)	4cc\]	.	4d\	4B-\	pp	4g/	4G/	p	4b-\	p	4g/	p	4d\	p	4d\	p
.	.	.	.	.	4ee\	4cc\	.	4B-\	4G\	.	4g/	4G/	.	4r	.	4r	.	4r	.	4r	.
[4ddd\	.	.	.	.	4ee\	4cc\	.	4B-\	4G\	.	4g/	4G/	.	4r	.	4r	.	4r	.	4r	.
=41	=41	=41	=41	=41	=41	=41	=41	=41	=41	=41	=41	=41	=41	=41	=41	=41	=41	=41	=41	=41	=41
4ddd\]	.	2.r	2.r	.	4ee\	4dd\	.	4A\	4F#\	.	4g/	4G/	.	4a/	.	4f#/	.	4d\ 4c\	.	4D\	.
8ff#\L	.	.	.	.	4ee\	4dd\	.	4A\	4F#\	.	4g/	4G/	.	4r	.	4r	.	4r	.	4r	.
8gg\	.	.	.	.	.	.	.	.	.	.	.	.	.	.	.	.	.	.	.	.	.
8aa\	.	.	.	.	4ee\	4dd\	.	4A\	4F#\	.	4g/	4G/	.	4r	.	4r	.	4r	.	4r	.
8bb-\J	.	.	.	.	.	.	.	.	.	.	.	.	.	.	.	.	.	.	.	.	.
=42	=42	=42	=42	=42	=42	=42	=42	=42	=42	=42	=42	=42	=42	=42	=42	=42	=42	=42	=42	=42	=42
*	*	*v	*v	*	*	*	*	*	*	*	*	*	*	*	*	*	*	*	*	*	*
4gg\	.	4r	.	4ee\	4cc\	.	4G/	4G\	.	4g/	4c/	.	4g/	.	4g/	.	4d\ 4B-\	.	4G\	.
4r	.	4r	.	4r	4r	.	4r	4ryy	.	4r	4r	.	4r	.	4r	.	4r	.	4r	.
=:|!	=:|!	=:|!	=:|!	=:|!	=:|!	=:|!	=:|!	=:|!	=:|!	=:|!	=:|!	=:|!	=:|!	=:|!	=:|!	=:|!	=:|!	=:|!	=:|!	=:|!
*>C	*	*>C	*	*	*	*	*	*	*	*	*	*	*>C	*	*>C	*	*>C	*	*>C	*
*k[f#]	*	*k[f#]	*	*	*	*	*	*	*	*	*	*	*k[f#]	*	*k[f#]	*	*k[f#]	*	*k[f#]	*
*G:	*	*G:	*	*	*	*	*	*	*	*	*	*	*G:	*	*G:	*	*G:	*	*G:	*
*M3/4	*	*M3/4	*	*	*	*	*	*	*	*	*	*	*M3/4	*	*M3/4	*	*M3/4	*	*M3/4	*
! Trio	!	!	!	!	!	!	!	!	!	!	!	!	!	!	!	!	!	!	!	!
*	*	*	*	*v	*v	*	*	*	*	*	*	*	*	*	*	*	*	*	*	*
*	*	*	*	*>C	*	*	*	*	*	*	*	*	*	*	*	*	*	*	*
*	*	*	*	*k[]	*	*	*	*	*	*	*	*	*	*	*	*	*	*	*
*	*	*	*	*C/a:	*	*	*	*	*	*	*	*	*	*	*	*	*	*	*
*	*	*	*	*M3/4	*	*	*	*	*	*	*	*	*	*	*	*	*	*	*
*	*	*	*	*	*	*v	*v	*	*	*	*	*	*	*	*	*	*	*	*
*	*	*	*	*	*	*>C	*	*	*	*	*	*	*	*	*	*	*	*
*	*	*	*	*	*	*k[f#]	*	*	*	*	*	*	*	*	*	*	*	*
*	*	*	*	*	*	*G/e:	*	*	*	*	*	*	*	*	*	*	*	*
*	*	*	*	*	*	*M3/4	*	*	*	*	*	*	*	*	*	*	*	*
*	*	*	*	*	*	*	*	*v	*v	*	*	*	*	*	*	*	*	*
*	*	*	*	*	*	*	*	*>C	*	*	*	*	*	*	*	*	*
*	*	*	*	*	*	*	*	*k[]	*	*	*	*	*	*	*	*	*
*	*	*	*	*	*	*	*	*C/a:	*	*	*	*	*	*	*	*	*
*	*	*	*	*	*	*	*	*M3/4	*	*	*	*	*	*	*	*	*
4r	.	4r	.	4r	.	4r	.	4r	.	(4g/	p	(4Bn/	p	4r	.	4r	.
2ryy	.	2ryy	.	2ryy	.	2ryy	.	2ryy	.	2ryy	.	2ryy	.	2ryy	.	2ryy	.
=43	=43	=43	=43	=43	=43	=43	=43	=43	=43	=43	=43	=43	=43	=43	=43	=43	=43
*	*	*^	*	*^	*	*^	*	*^	*	*	*	*	*	*	*	*	*
2.r	.	2.r	2.r	.	2.r	2.r	.	2.r	2.r	.	2.r	2.r	.	4bn\	.	4g/	.	2.r	.	2.r	.
.	.	.	.	.	.	.	.	.	.	.	.	.	.	4dd\	.	4bn\	.	.	.	.	.
.	.	.	.	.	.	.	.	.	.	.	.	.	.	4cc\	.	4a/	.	.	.	.	.
=44	=44	=44	=44	=44	=44	=44	=44	=44	=44	=44	=44	=44	=44	=44	=44	=44	=44	=44	=44	=44	=44
2.r	.	2.r	2.r	.	2.r	2.r	.	2.r	2.r	.	2.r	2.r	.	4a/)	.	4f#/)	.	4r	.	4r	.
.	.	.	.	.	.	.	.	.	.	.	.	.	.	4r	.	4r	.	4d\	p	4d\	p
.	.	.	.	.	.	.	.	.	.	.	.	.	.	(4a/	.	(4f#/	.	4r	.	4r	.
=45	=45	=45	=45	=45	=45	=45	=45	=45	=45	=45	=45	=45	=45	=45	=45	=45	=45	=45	=45	=45	=45
2.r	.	2.r	2.r	.	2.r	2.r	.	2.r	2.r	.	2.r	2.r	.	4cc\	.	4a/	.	2.r	.	2.r	.
.	.	.	.	.	.	.	.	.	.	.	.	.	.	4een\	.	4cc\	.	.	.	.	.
.	.	.	.	.	.	.	.	.	.	.	.	.	.	4dd\	.	4bn\	.	.	.	.	.
=46	=46	=46	=46	=46	=46	=46	=46	=46	=46	=46	=46	=46	=46	=46	=46	=46	=46	=46	=46	=46	=46
2.r	.	2.r	2.r	.	2.r	2.r	.	2.r	2.r	.	2.r	2.r	.	4bn\)	.	4g/)	.	4r	.	4r	.
.	.	.	.	.	.	.	.	.	.	.	.	.	.	4r	.	4r	.	(4d\	.	4G'\	.
.	.	.	.	.	.	.	.	.	.	.	.	.	.	4r	.	(4Bn/	.	[4g\)	.	4En'\	.
=47	=47	=47	=47	=47	=47	=47	=47	=47	=47	=47	=47	=47	=47	=47	=47	=47	=47	=47	=47	=47	=47
2.r	.	2.r	2.r	.	2.r	2.r	.	2.r	2.r	.	2.r	2.r	.	4a/	.	4en/)	.	4g\]	.	4C'/	.
!	!	!	!	!	!	!	!	!	!	!	!	!	!	! (16bP/	!	!	!	!	!	!	!
.	.	.	.	.	.	.	.	.	.	.	.	.	.	8ap/L)	.	4c'/	.	8f#\L	.	4AA'/	.
.	.	.	.	.	.	.	.	.	.	.	.	.	.	8g/	.	.	.	8en\J	.	.	.
.	.	.	.	.	.	.	.	.	.	.	.	.	.	8a/	.	4A'/	.	4f#\	.	4D'\	.
.	.	.	.	.	.	.	.	.	.	.	.	.	.	8bn/J	.	.	.	.	.	.	.
=48	=48	=48	=48	=48	=48	=48	=48	=48	=48	=48	=48	=48	=48	=48	=48	=48	=48	=48	=48	=48	=48
2.r	.	4r	4r	.	2.r	2.r	.	2.r	2.r	.	2.r	2.r	.	4g/	.	4d'/	.	4g\	.	4BBn'/	.
.	.	4r	4r	.	.	.	.	.	.	.	.	.	.	4r	.	4Bn'/	.	4r	.	4GG'/	.
.	.	(4g/	4d/	p	.	.	.	.	.	.	.	.	.	4r	.	4r	.	4r	.	4r	.
=49	=49	=49	=49	=49	=49	=49	=49	=49	=49	=49	=49	=49	=49	=49	=49	=49	=49	=49	=49	=49	=49
2.r	.	4bn/	4g/	.	2.r	2.r	.	2.r	2.r	.	2.r	2.r	.	2.r	.	2.r	.	2.r	.	2.r	.
.	.	4dd\	4bn\	.	.	.	.	.	.	.	.	.	.	.	.	.	.	.	.	.	.
.	.	4gg\)	4dd\	.	.	.	.	.	.	.	.	.	.	.	.	.	.	.	.	.	.
=50	=50	=50	=50	=50	=50	=50	=50	=50	=50	=50	=50	=50	=50	=50	=50	=50	=50	=50	=50	=50	=50
4r	.	(4bbn\	4gg\	.	2.r	2.r	.	2.r	2.r	.	2.r	2.r	.	2.r	.	2.r	.	2.r	.	2.r	.
4r	.	4aa\)	4ff#\	.	.	.	.	.	.	.	.	.	.	.	.	.	.	.	.	.	.
(4a/	p	(4aa'\	4ff#\	.	.	.	.	.	.	.	.	.	.	.	.	.	.	.	.	.	.
=51	=51	=51	=51	=51	=51	=51	=51	=51	=51	=51	=51	=51	=51	=51	=51	=51	=51	=51	=51	=51	=51
! cresc.	!	! cresc.	!	!	!	!	!	!	!	!	!	!	!	!	!	!	!	!	!	!	!
4dd\	.	4aa'\	4ff#\	.	2.r	2.r	.	2.r	2.r	.	2.r	2.r	.	2.r	.	2.r	.	2.r	.	2.r	.
4ff#\	.	4aa'\	4ff#\	.	.	.	.	.	.	.	.	.	.	.	.	.	.	.	.	.	.
4aa\)	.	4aa'\)	4ff#\	.	.	.	.	.	.	.	.	.	.	.	.	.	.	.	.	.	.
=52	=52	=52	=52	=52	=52	=52	=52	=52	=52	=52	=52	=52	=52	=52	=52	=52	=52	=52	=52	=52	=52
(4ddd\	.	(4aa\	4ff#\	.	2.r	2.r	.	4r	2.r	.	2.r	2.r	.	2.r	.	2.r	.	2.r	.	2.r	.
4ccc#\)	.	4gg\)	4een\	.	.	.	.	4r	.	.	.	.	.	.	.	.	.	.	.	.	.
(4ccc#'\	.	(4gg'\	4ee\	ff	.	.	.	(4AA/	.	f	.	.	.	.	.	.	.	.	.	.	.
=53	=53	=53	=53	=53	=53	=53	=53	=53	=53	=53	=53	=53	=53	=53	=53	=53	=53	=53	=53	=53	=53
4ccc#'\	.	4gg'\	4een\	.	2.r	2.r	.	4C#/	2.r	.	2.r	2.r	.	2.r	.	2.r	.	2.r	.	2.r	.
4ccc#'\	.	4gg'\	4ee\	.	.	.	.	4En/	.	.	.	.	.	.	.	.	.	.	.	.	.
4ccc#'\)	.	4gg'\)	4ee\	.	.	.	.	4A/)	.	.	.	.	.	.	.	.	.	.	.	.	.
=54	=54	=54	=54	=54	=54	=54	=54	=54	=54	=54	=54	=54	=54	=54	=54	=54	=54	=54	=54	=54	=54
(4ccc#\	.	(4gg/	(4een\	.	2.r	2.r	.	(4A#/	2.r	.	2.r	2.r	.	2.r	.	2.r	.	2.r	.	2.r	.
4ddd\)	.	4ff#/)	4dd\)	.	.	.	.	4Bn/	.	.	.	.	.	.	.	.	.	.	.	.	.
(4ff#\	p	(4dd/	4r	p	.	.	.	4An/)	.	p	.	.	.	.	.	.	.	.	.	.	.
=55	=55	=55	=55	=55	=55	=55	=55	=55	=55	=55	=55	=55	=55	=55	=55	=55	=55	=55	=55	=55	=55
4aa\	.	4ff#/	(2bn\	p	2.r	2.r	.	(2G/	2.r	.	2.r	2.r	.	2.r	.	2.r	.	2.r	.	2.r	.
4gg\	.	4een/	.	.	.	.	.	.	.	.	.	.	.	.	.	.	.	.	.	.	.
4een\)	.	4cc#/)	4g\)	.	.	.	.	4A/)	.	.	.	.	.	.	.	.	.	.	.	.	.
=56	=56	=56	=56	=56	=56	=56	=56	=56	=56	=56	=56	=56	=56	=56	=56	=56	=56	=56	=56	=56	=56
4dd\	.	4dd/	4f#\	.	2.r	2.r	.	4D/	2.r	.	2.r	2.r	.	(4dd\	.	2.r	.	2.r	.	2.r	.
4r	.	4r	4ryy	.	.	.	.	4r	.	.	.	.	.	4aa\	.	.	.	.	.	.	.
4r	.	4r	4ryy	.	.	.	.	4r	.	.	.	.	.	4ff#\)	.	.	.	.	.	.	.
=57	=57	=57	=57	=57	=57	=57	=57	=57	=57	=57	=57	=57	=57	=57	=57	=57	=57	=57	=57	=57	=57
2.r	.	2.r	2.r	.	2.r	2.r	.	2.r	2.r	.	2.r	2.r	.	4een\	.	4cc#\	.	4g\	.	4A\	.
!	!	!	!	!	!	!	!	!	!	!	!	!	!	! (16ff#P/	!	!	!	!	!	!	!
.	.	.	.	.	.	.	.	.	.	.	.	.	.	8eep\L)	.	4r	.	4r	.	4r	.
.	.	.	.	.	.	.	.	.	.	.	.	.	.	8dd\	.	.	.	.	.	.	.
.	.	.	.	.	.	.	.	.	.	.	.	.	.	8ee\	.	4r	.	4r	.	4r	.
.	.	.	.	.	.	.	.	.	.	.	.	.	.	8ff#\J	.	.	.	.	.	.	.
=58	=58	=58	=58	=58	=58	=58	=58	=58	=58	=58	=58	=58	=58	=58	=58	=58	=58	=58	=58	=58	=58
2.r	.	(4dd/	2.r	.	2.r	2.r	.	2.r	2.r	.	2.r	2.r	.	(4dd\	.	4dd\	.	4f#\	.	4d\	.
.	.	4aa/	.	.	.	.	.	.	.	.	.	.	.	4a/	.	4r	.	4r	.	4r	.
.	.	4ff#/)	.	.	.	.	.	.	.	.	.	.	.	4f#/)	.	4r	.	4r	.	4r	.
=59	=59	=59	=59	=59	=59	=59	=59	=59	=59	=59	=59	=59	=59	=59	=59	=59	=59	=59	=59	=59	=59
2.r	.	4een/	2.r	.	2.r	2.r	.	2.r	2.r	.	2.r	2.r	.	4en/	.	4c#/	.	4G/	.	4A\	.
!	!	! (16ff#P/	!	!	!	!	!	!	!	!	!	!	!	! (16f#P/	!	!	!	!	!	!	!
.	.	8eep/L)	.	.	.	.	.	.	.	.	.	.	.	8ep/L)	.	4r	.	4r	.	4r	.
.	.	8dd/	.	.	.	.	.	.	.	.	.	.	.	8d/	.	.	.	.	.	.	.
.	.	8ee/	.	.	.	.	.	.	.	.	.	.	.	8e/	.	4r	.	4r	.	4r	.
.	.	8ff#/J	.	.	.	.	.	.	.	.	.	.	.	8f#/J	.	.	.	.	.	.	.
=60	=60	=60	=60	=60	=60	=60	=60	=60	=60	=60	=60	=60	=60	=60	=60	=60	=60	=60	=60	=60	=60
4r	.	4dd/	4r	.	4r	4r	.	4r	4r	.	4r	4r	.	4d/	.	4d/	.	4F#/	.	4D\	.
4r	.	4r	4ryy	.	4r	4r	.	4r	4r	.	4r	4r	.	4r	.	4r	.	4r	.	4r	.
=:!!:	=:!!:	=:!!:	=:!!:	=:!!:	=:!!:	=:!!:	=:!!:	=:!!:	=:!!:	=:!!:	=:!!:	=:!!:	=:!!:	=:!!:	=:!!:	=:!!:	=:!!:	=:!!:	=:!!:	=:!!:	=:!!:
*>D	*	*	*	*	*>D	*	*	*>D	*	*	*>D	*	*	*>D	*	*>D	*	*>D	*	*>D	*
*	*	*v	*v	*	*	*	*	*	*	*	*	*	*	*	*	*	*	*	*	*	*
*	*	*>D	*	*	*	*	*	*	*	*	*	*	*	*	*	*	*	*	*	*
4r	.	4r	.	4r	4r	.	4r	4r	.	4r	4r	.	4r	.	4r	.	4r	.	(4D\	.
2ryy	.	2ryy	.	2ryy	2ryy	.	2ryy	2ryy	.	2ryy	2ryy	.	2ryy	.	2ryy	.	2ryy	.	2ryy	.
=61	=61	=61	=61	=61	=61	=61	=61	=61	=61	=61	=61	=61	=61	=61	=61	=61	=61	=61	=61	=61
*	*	*^	*	*	*	*	*	*	*	*	*	*	*	*	*	*	*	*	*	*
4r	.	4r	2ryy	.	2.r	2.r	.	4r	4r	.	2.r	2.r	.	2.r	.	2.r	.	2.r	.	4F#\	.
4r	.	4r	.	.	.	.	.	4r	4r	.	.	.	.	.	.	.	.	.	.	4A\	.
(4cccn\	.	4ccn/	(4a/	.	.	.	.	(4cn\	4A\	p	.	.	.	.	.	.	.	.	.	4d\)	.
=62	=62	=62	=62	=62	=62	=62	=62	=62	=62	=62	=62	=62	=62	=62	=62	=62	=62	=62	=62	=62	=62
4bbn\	.	4bn/	4g/	.	2.r	2.r	.	4Bn\	4G\	.	2.r	2.r	.	2.r	.	2.r	.	2.r	.	4r	.
4aa\)	.	4a/	4f#/)	.	.	.	.	4A\)	4F#\	.	.	.	.	.	.	.	.	.	.	4r	.
4r	.	4r	4r	.	.	.	.	4r	4r	.	.	.	.	.	.	.	.	.	.	(4D\	.
=63	=63	=63	=63	=63	=63	=63	=63	=63	=63	=63	=63	=63	=63	=63	=63	=63	=63	=63	=63	=63	=63
4r	.	4r	2ryy	.	2.r	2.r	.	4r	4r	.	2.r	2.r	.	2.r	.	2.r	.	2.r	.	4G\	.
4r	.	4r	.	.	.	.	.	4r	4r	.	.	.	.	.	.	.	.	.	.	4Bn\	.
(4ddd\	.	(4dd\	4bn\	.	.	.	.	(4d\	4Bn\	.	.	.	.	.	.	.	.	.	.	4d\)	.
=64	=64	=64	=64	=64	=64	=64	=64	=64	=64	=64	=64	=64	=64	=64	=64	=64	=64	=64	=64	=64	=64
4ccc\	.	4cc\	4a\	.	2.r	2.r	.	4c\	4A\	.	2.r	2.r	.	2.r	.	2.r	.	2.r	.	4r	.
4bbn\)	.	4bn/)	4g/	.	.	.	.	4Bn\)	4G\	.	.	.	.	.	.	.	.	.	.	4r	.
4r	.	4r	4r	.	.	.	.	4r	4r	.	.	.	.	.	.	.	.	.	.	(4En\	.
=65	=65	=65	=65	=65	=65	=65	=65	=65	=65	=65	=65	=65	=65	=65	=65	=65	=65	=65	=65	=65	=65
4r	.	4r	4r	.	2.r	2.r	.	4r	4r	.	2.r	2.r	.	2.r	.	2.r	.	2.r	.	4G#\	.
4r	.	4r	4r	.	.	.	.	4r	4r	.	.	.	.	.	.	.	.	.	.	4Bn\	.
(4eeen\	.	(4een\	4cc\	.	.	.	.	4en\	(4G#\	.	.	.	.	.	.	.	.	.	.	4en\)	.
=66	=66	=66	=66	=66	=66	=66	=66	=66	=66	=66	=66	=66	=66	=66	=66	=66	=66	=66	=66	=66	=66
4ddd\	.	4dd\	4bn\	.	2.r	2.r	.	(2en\	2A\	.	2.r	2.r	.	2.r	.	2.r	.	2.r	.	2.r	.
4ccc\	.	4cc\	4a\	.	.	.	.	.	.	.	.	.	.	.	.	.	.	.	.	.	.
4ddd\)	.	4dd\)	4b\	.	.	.	.	4d\)	4F#\)	.	.	.	.	.	.	.	.	.	.	.	.
=67	=67	=67	=67	=67	=67	=67	=67	=67	=67	=67	=67	=67	=67	=67	=67	=67	=67	=67	=67	=67	=67
(4ccc\	.	(4cc\	4a\	.	2.r	2.r	.	(2d\	(2Gn\	.	2.r	2.r	.	2.r	.	2.r	.	2.r	.	2.r	.
4bbn\	.	4bn/	4g/	.	.	.	.	.	.	.	.	.	.	.	.	.	.	.	.	.	.
8ddd\L	.	8dd\L	8bn\L	.	.	.	.	4en\)	4C\)	.	.	.	.	.	.	.	.	.	.	.	.
8ccc\J)	.	8cc\J)	8a\J	.	.	.	.	.	.	.	.	.	.	.	.	.	.	.	.	.	.
=68	=68	=68	=68	=68	=68	=68	=68	=68	=68	=68	=68	=68	=68	=68	=68	=68	=68	=68	=68	=68	=68
(4bbn\	.	4bn/	(4g/	.	2.r	2.r	.	2d\	2D\	.	4r	4r	.	4r	.	4r	.	2.r	.	2.r	.
4aa\)	.	4a/	4f#/)	.	.	.	.	.	.	.	4r	4r	.	4r	.	4r	.	.	.	.	.
4r	.	4r	4r	.	.	.	.	4r	4r	.	4cc/	4e'/	p	(4g/	.	(4Bn/	.	.	.	.	.
=69	=69	=69	=69	=69	=69	=69	=69	=69	=69	=69	=69	=69	=69	=69	=69	=69	=69	=69	=69	=69	=69
2.r	.	2.r	2.r	.	2.r	2.r	.	2.r	2.r	.	(2ee\	(2cc\	.	4bn\	.	4g/	.	2.r	.	2.r	.
.	.	.	.	.	.	.	.	.	.	.	.	.	.	4dd\	.	4bn/	.	.	.	.	.
.	.	.	.	.	.	.	.	.	.	.	4ff\)	4dd\)	.	4cc\	.	4a/	.	.	.	.	.
=70	=70	=70	=70	=70	=70	=70	=70	=70	=70	=70	=70	=70	=70	=70	=70	=70	=70	=70	=70	=70	=70
2.r	.	2.r	2.r	.	2.r	2.r	.	2.r	2.r	.	4dd\	4g\	.	4a/)	.	4f#/)	.	4r	.	4r	.
.	.	.	.	.	.	.	.	.	.	.	4r	4r	.	4r	.	4r	.	4d\	.	4d\	.
.	.	.	.	.	.	.	.	.	.	.	4dd'\	4g\	.	(4a/	.	(4f#/	.	4d\	.	4d\	.
=71	=71	=71	=71	=71	=71	=71	=71	=71	=71	=71	=71	=71	=71	=71	=71	=71	=71	=71	=71	=71	=71
2.r	.	2.r	2.r	.	2.r	2.r	.	2.r	2.r	.	(2ff\	(2dd\	.	4cc\	.	4a/	.	2.r	.	2.r	.
.	.	.	.	.	.	.	.	.	.	.	.	.	.	4een\	.	4cc\	.	.	.	.	.
.	.	.	.	.	.	.	.	.	.	.	4gg\)	4ee\)	.	4dd\	.	4bn\	.	.	.	.	.
=72	=72	=72	=72	=72	=72	=72	=72	=72	=72	=72	=72	=72	=72	=72	=72	=72	=72	=72	=72	=72	=72
*	*	*	*	*	*	*	*	*	*	*	*	*	*	*	*	*	*	*^	*	*	*
2.r	.	2.r	2.r	.	2.r	2.r	.	2.r	2.r	.	4ee\	4cc\	.	4bn\)	.	4g/)	.	4r	4ryy	.	4r	.
.	.	.	.	.	.	.	.	.	.	.	4r	4r	.	4r	.	4r	.	4dn/	4B\	.	4G\	.
.	.	.	.	.	.	.	.	.	.	.	4r	4r	.	4r	.	4r	.	4d/	4B\	.	4G\	.
=73	=73	=73	=73	=73	=73	=73	=73	=73	=73	=73	=73	=73	=73	=73	=73	=73	=73	=73	=73	=73	=73	=73
2.r	.	2.r	2.r	.	2.r	2.r	.	2.r	2.r	.	4dd/	4g\	.	4a/	.	4f#/	.	4r	4ryy	.	4r	.
!	!	!	!	!	!	!	!	!	!	!	!	!	!	! (16bP/	!	! (16gP/	!	!	!	!	!	!
.	.	.	.	.	.	.	.	.	.	.	8dd/L	4g\	.	8ap/L)	.	8f#p/L)	.	4d/	4c\	.	4D\	.
.	.	.	.	.	.	.	.	.	.	.	8cc/	.	.	8g/	.	8en/J	.	.	.	.	.	.
.	.	.	.	.	.	.	.	.	.	.	8dd/	4g\	.	8a/	.	4f#/	.	4d/	4c\	.	4D\	.
.	.	.	.	.	.	.	.	.	.	.	8ee/J	.	.	8bn/J	.	.	.	.	.	.	.	.
=74	=74	=74	=74	=74	=74	=74	=74	=74	=74	=74	=74	=74	=74	=74	=74	=74	=74	=74	=74	=74	=74	=74
2.r	.	2.r	2.r	.	2.r	2.r	.	2.r	2.r	.	4cc/	4e/	.	4g/	.	4g/	.	4d/	4Bn\	.	4GG/	.
.	.	.	.	.	.	.	.	.	.	.	4r	4r	.	4r	.	4r	.	2ryy	4r	.	4G\	.
.	.	.	.	.	.	.	.	.	.	.	(4e/	4c/	.	4r	.	4r	.	.	4r	.	4r	.
=75	=75	=75	=75	=75	=75	=75	=75	=75	=75	=75	=75	=75	=75	=75	=75	=75	=75	=75	=75	=75	=75	=75
*	*	*	*	*	*	*	*	*	*	*	*	*	*	*	*	*	*	*v	*v	*	*	*
2.r	.	2.r	2.r	.	2.r	2.r	.	4r	4r	.	4g/	4e/	.	2.r	.	2.r	.	2.r	.	2.r	.
.	.	.	.	.	.	.	.	4r	4r	.	4cc/	4g/	.	.	.	.	.	.	.	.	.
!	!	!	!	!	!	!	!	! cresc.	!	!	! cresc.	!	!	!	!	!	!	!	!	!	!
.	.	.	.	.	.	.	.	(4D/	4DD/	.	4ee\)	4cc\	.	.	.	.	.	.	.	.	.
=76	=76	=76	=76	=76	=76	=76	=76	=76	=76	=76	=76	=76	=76	=76	=76	=76	=76	=76	=76	=76	=76
4r	.	4r	2.r	.	2.r	2.r	.	4F#/	4FF#/	.	(4gg\	4ee\	.	2.r	.	2.r	.	2.r	.	2.r	.
4r	.	4r	.	.	.	.	.	4A\	4AA\	.	4ff\)	4dd\	.	.	.	.	.	.	.	.	.
(4ff#\	f	(4f#/	.	f	.	.	.	4d\)	4D\	f	(4ff'\	4dd\	f	.	.	.	.	.	.	.	.
=77	=77	=77	=77	=77	=77	=77	=77	=77	=77	=77	=77	=77	=77	=77	=77	=77	=77	=77	=77	=77	=77
4aa\	.	4a/	2.r	.	2.r	2.r	.	(4f#'\	4d\	.	4ff'\	4dd\	.	2.r	.	2.r	.	2.r	.	2.r	.
4ccc\	.	4cc/	.	.	.	.	.	4f#'\	4d\	.	4ff'\	4dd\	.	.	.	.	.	.	.	.	.
4ddd\)	.	4dd/)	.	.	.	.	.	4f#'\)	4d\	.	4ff'\)	4dd\	.	.	.	.	.	.	.	.	.
=78	=78	=78	=78	=78	=78	=78	=78	=78	=78	=78	=78	=78	=78	=78	=78	=78	=78	=78	=78	=78	=78
(4fff#\	.	(4ccc/	(4aa\	f	2.r	2.r	.	(4f#/	(4d#\	.	(4ff\	(4dd\	.	2.r	.	2.r	.	2.r	.	2.r	.
4ggg\)	.	4bbn/)	4gg\)	.	.	.	.	4g/)	4en\	.	4ee\)	4cc\)	.	.	.	.	.	.	.	.	.
(4bbn\	p	(4gg/	4r	p	.	.	.	4r	4dn\)	p	4r	4r	.	.	.	.	.	.	.	.	.
=79	=79	=79	=79	=79	=79	=79	=79	=79	=79	=79	=79	=79	=79	=79	=79	=79	=79	=79	=79	=79	=79
4ddd\	.	4bbn/	(2een\	p	2.r	2.r	.	2.r	(2c\	.	2.r	2.r	.	2.r	.	2.r	.	2.r	.	2.r	.
4ccc\	.	4aa/	.	.	.	.	.	.	.	.	.	.	.	.	.	.	.	.	.	.	.
4aa\)	.	4ff#/)	4cc\)	.	.	.	.	.	4d\)	.	.	.	.	.	.	.	.	.	.	.	.
=80	=80	=80	=80	=80	=80	=80	=80	=80	=80	=80	=80	=80	=80	=80	=80	=80	=80	=80	=80	=80	=80
4gg\	.	4gg/	4bn\	.	2.r	2.r	.	(4G/	4G\	p	2.r	2.r	.	(4g/	.	2.r	.	2.r	.	2.r	.
4r	.	4r	4ryy	.	.	.	.	4d/	4r	.	.	.	.	4dd\	.	.	.	.	.	.	.
4r	.	4r	4ryy	.	.	.	.	4Bn/)	4r	.	.	.	.	4bn\)	.	.	.	.	.	.	.
=81	=81	=81	=81	=81	=81	=81	=81	=81	=81	=81	=81	=81	=81	=81	=81	=81	=81	=81	=81	=81	=81
*	*	*	*	*	*	*	*	*	*	*	*	*	*	*	*	*	*	*^	*	*	*
2.r	.	2.r	2.r	.	2.r	2.r	.	4A/	2.r	.	2.r	2.r	.	4a/	.	4f#/	.	4d/	4c\	.	4D\	.
!	!	!	!	!	!	!	!	! (16BP/	!	!	!	!	!	! (16bP/	!	!	!	!	!	!	!	!
.	.	.	.	.	.	.	.	8Ap/L)	.	.	.	.	.	8ap/L)	.	4r	.	2ryy	4r	.	4r	.
.	.	.	.	.	.	.	.	8G/	.	.	.	.	.	8g/	.	.	.	.	.	.	.	.
.	.	.	.	.	.	.	.	8A/	.	.	.	.	.	8a/	.	4r	.	.	4r	.	4r	.
.	.	.	.	.	.	.	.	8Bn/J	.	.	.	.	.	8bn/J	.	.	.	.	.	.	.	.
=82	=82	=82	=82	=82	=82	=82	=82	=82	=82	=82	=82	=82	=82	=82	=82	=82	=82	=82	=82	=82	=82	=82
(4gg\	.	2.r	2.r	.	2.r	2.r	.	4G/	2.r	.	2.r	2.r	.	(4g/	.	4g/	.	4dn/	4B\	.	4G\	.
4ddd\	.	.	.	.	.	.	.	4r	.	.	.	.	.	4dd\	.	4r	.	2ryy	4r	.	4r	.
4bbn\)	.	.	.	.	.	.	.	4r	.	.	.	.	.	4bn\)	.	4r	.	.	4r	.	4r	.
=83	=83	=83	=83	=83	=83	=83	=83	=83	=83	=83	=83	=83	=83	=83	=83	=83	=83	=83	=83	=83	=83	=83
*	*	*	*	*	*	*	*	*	*	*	*	*	*	*	*	*^	*	*	*	*	*	*
*	*	*	*	*	*	*	*	*	*	*	*	*	*	*	*	*	*	*	*v	*v	*	*	*
4aa\	.	4ff#'\	4cc\	.	2.r	2.r	.	2.r	2.r	.	4dd\	4g\	p	4a/	.	4d/	4c\	.	4F#/	.	4D\	.
! (16bbP/	!	!	!	!	!	!	!	!	!	!	!	!	!	! (16bP/	!	!	!	!	!	!	!	!
8aap\L)	.	4ff#'\	4cc\	.	.	.	.	.	.	.	4dd\	4g\	.	8ap/L)	.	2ryy	4r	.	4r	.	4r	.
8gg\	.	.	.	.	.	.	.	.	.	.	.	.	.	8g/	.	.	.	.	.	.	.	.
8aa\	.	4ff#'\	4cc\	.	.	.	.	.	.	.	4dd\	4g\	.	8a/	.	.	4r	.	4r	.	4r	.
8bbn\J	.	.	.	.	.	.	.	.	.	.	.	.	.	8bn/J	.	.	.	.	.	.	.	.
=84	=84	=84	=84	=84	=84	=84	=84	=84	=84	=84	=84	=84	=84	=84	=84	=84	=84	=84	=84	=84	=84	=84
*	*	*	*	*	*v	*v	*	*	*	*	*	*	*	*	*	*	*	*	*	*	*	*
*	*	*	*	*	*	*	*v	*v	*	*	*	*	*	*	*	*	*	*	*	*	*
4gg\	.	4gg\	4bn\	.	4r	.	4r	.	4cc/	4e/	.	4g/	.	4dn/	4B\	.	4G/	.	4GG/	.
!	!	!	!	!	!	!	!	!	! Menuetto da capo	!	!	!	!	!	!	!	!	!	! Menuetto da capo	!
4r	.	4r	4r	.	4r	.	4r	.	4r	4r	.	4r	.	2ryy	4r	.	4r	.	4r	.
==:|!	==:|!	==:|!	==:|!	==:|!	==:|!	==:|!	==:|!	==:|!	==:|!	==:|!	==:|!	==:|!	==:|!	==:|!	==:|!	==:|!	==:|!	==:|!	==:|!	==:|!
*-	*-	*-	*-	*-	*-	*-	*-	*-	*-	*-	*-	*-	*-	*-	*-	*-	*-	*-	*-	*-
!!!RWG: Appoggiaturas of spine 'Flauto' need manual editing in measures: 83
!!!RWG: Appoggiaturas of spine 'Oboe 1, 2' need manual editing in measures: 59
!!!RWG: Appoggiaturas of spine 'Fagotto 1, 2' need manual editing in measures: 81
!!!RWG: Appoggiaturas of spine 'Violino I' need manual editing in measures: 47, 57, 59, 73, 81, 83
!!!RWG: Appoggiaturas of spine 'Violino II' need manual editing in measures: 73
!!!RWG: Key is interpreted using the Humdrum key tool.
!!!AFT: stage2
!!!END: 1996/08/13
!!format changes:
!!content changes:
!!public access: complete
!!!KEY: 2310737690
!!!EMD: Converted from MuseData to Humdrum Dec 16, 2000, by Andreas Kornstaedt using muse2kern.
